icons/denojs/denojs-original.svg

<svg width="128" height="128" viewBox="0 0 128 128" fill="none" xmlns="http://www.w3.org/2000/svg">
<circle cx="64" cy="64" r="64" fill="black"/>
<path d="M32.5 57L30.5 59L29 61L27.5 63.5L27 65V66.5V67.5V68.5L27.5 69.5L28 70.5L28.5 71.5L29.5 73L31 74.5L33.5 76L36.5 77.5L40.5 78.5L44.5 79H51L53 78.5L57.5 77.5L61.5 76L63.5 75.5L65 75L66.5 74.5H67H67.5L68.5 75L69 76V76.5V77V77.5L68.5 78L61.5 81L62.5 89.5L62.75 91.75L63 95V96.5V99.5V118.5V122.5H73L77 122L81.5 121L86 119.5L90 118L94 116V115.5L93 94.5L92.5 90L92 86L91.5 81L91 76.5L90 72.5L89 69L87.5 64L85.5 60.5L83.5 57.5L81 55L79 53L76 50.5L73.5 49L69.5 47.5L66.5 46.5L63.5 46H59.5H56L51.5 47L46.5 48.5L41.5 50.5L36.5 53.5L34.5 55L32.5 57Z" fill="white" stroke="black"/>
<circle cx="38" cy="56" r="2" fill="black"/>
<circle cx="48.25" cy="57.25" r="2.25" fill="black"/>
<path d="M59.1184 6.37161C59.1098 6.20615 59.2369 6.06499 59.4023 6.05632L60.3011 6.00922C60.4665 6.00055 60.6077 6.12765 60.6164 6.29311L62.5214 42.6432C62.5301 42.8087 62.403 42.9498 62.2375 42.9585L61.5385 42.9951C61.2627 43.0096 61.0274 42.7978 61.013 42.522L59.1184 6.37161Z" fill="white"/>
<path d="M106.967 23.3139C106.967 23.1482 107.101 23.0139 107.267 23.0139V23.0139C107.819 23.0139 108.267 23.4616 108.267 24.0139V67.7139C108.267 67.8796 108.133 68.0139 107.967 68.0139H107.467C107.191 68.0139 106.967 67.7901 106.967 67.5139V23.3139Z" fill="white"/>
<path d="M36.3247 13.174C36.267 12.6247 36.6655 12.1326 37.2147 12.0749L37.4136 12.054C37.5784 12.0367 37.726 12.1562 37.7434 12.321L40.6074 39.5709C40.6248 39.7357 40.5052 39.8833 40.3404 39.9006L39.6443 39.9738C39.3696 40.0027 39.1236 39.8034 39.0947 39.5288L36.3247 13.174Z" fill="white"/>
<path d="M26.0193 34.1663C26.0073 34.0629 26.0497 33.9607 26.1313 33.8963L26.8329 33.3422C27.0156 33.1979 27.286 33.3077 27.3163 33.5386L29.9756 53.8143C29.9905 53.9279 29.9394 54.0401 29.8439 54.1034L29.1188 54.5837C28.8079 54.7897 28.389 54.595 28.346 54.2245L26.0193 34.1663Z" fill="white"/>
<path d="M8.03016 40.2375C8.01109 40.0873 8.06109 39.9366 8.16613 39.8276L8.4562 39.5266C8.63143 39.3447 8.93922 39.4475 8.96999 39.6982L11.9034 63.5889C11.9236 63.7533 11.8067 63.903 11.6422 63.9232L11.5409 63.9357C11.2676 63.9692 11.0186 63.7755 10.984 63.5024L8.03016 40.2375Z" fill="white"/>
<path d="M12.0428 68.4854C12.0193 68.3192 12.1367 68.1661 12.3033 68.1456L12.4963 68.1219C12.6607 68.1017 12.8104 68.2187 12.8306 68.3831L15.8226 92.7507C15.8322 92.8295 15.7707 92.899 15.6913 92.899V92.899C15.5816 92.899 15.4886 92.8182 15.4732 92.7096L12.0428 68.4854Z" fill="white"/>
<path d="M20.0366 84.4806C20.0164 84.3162 20.1333 84.1665 20.2978 84.1463L20.4963 84.1219C20.6607 84.1017 20.8104 84.2187 20.8306 84.3831L23.4386 105.624C23.4588 105.788 23.3418 105.938 23.1774 105.958V105.958C22.9033 105.992 22.6538 105.797 22.6202 105.523L20.0366 84.4806Z" fill="white"/>
<path d="M32.16 98.4534C32.1426 98.2886 32.2622 98.141 32.427 98.1237L32.8248 98.0819C32.9895 98.0645 33.1372 98.1841 33.1545 98.3489L34.6597 112.67C34.677 112.835 34.5575 112.982 34.3927 113L34.1938 113.021C33.9192 113.049 33.6731 112.85 33.6443 112.576L32.16 98.4534Z" fill="white"/>
<path d="M50.1552 84.43C50.1407 84.2649 50.2628 84.1194 50.4279 84.105V84.105C50.703 84.0809 50.9455 84.2844 50.9696 84.5595L52.1985 98.6058C52.2177 98.8259 52.0549 99.0199 51.8348 99.0392V99.0392C51.6148 99.0584 51.4208 98.8956 51.4015 98.6755L50.1552 84.43Z" fill="white"/>
<path d="M45.0261 97.4295C45.0117 97.2644 45.1338 97.1189 45.2989 97.1045L45.6973 97.0696C45.8624 97.0552 46.0079 97.1773 46.0223 97.3423L46.8416 106.707C46.856 106.872 46.7339 107.017 46.5689 107.032L46.3697 107.049C46.0946 107.073 45.852 106.87 45.828 106.594L45.0261 97.4295Z" fill="white"/>
<path d="M39.077 110.438C39.0625 110.272 39.1846 110.127 39.3497 110.113L39.7482 110.078C39.9132 110.063 40.0587 110.185 40.0732 110.35L40.5438 115.73C40.5583 115.895 40.4362 116.04 40.2711 116.055L40.0719 116.072C39.7968 116.096 39.5543 115.893 39.5302 115.618L39.077 110.438Z" fill="white"/>
<path d="M36.0261 81.4295C36.0117 81.2644 36.1338 81.1189 36.2989 81.1045L36.8966 81.0522C37.0616 81.0377 37.2071 81.1598 37.2216 81.3249L37.6922 86.7043C37.7067 86.8694 37.5846 87.0149 37.4195 87.0293L37.021 87.0642C36.7459 87.0883 36.5034 86.8848 36.4794 86.6097L36.0261 81.4295Z" fill="white"/>
<path d="M25.0174 75.3299C25.0078 75.2198 25.0892 75.1228 25.1992 75.1132V75.1132C25.7494 75.065 26.2345 75.472 26.2826 76.0222L26.7794 81.7005C26.7938 81.8656 26.6717 82.0111 26.5067 82.0255L26.1082 82.0604C25.8331 82.0845 25.5906 81.881 25.5665 81.6059L25.0174 75.3299Z" fill="white"/>
<path d="M23.0261 56.4295C23.0117 56.2644 23.1338 56.1189 23.2989 56.1045L23.8966 56.0522C24.0616 56.0377 24.2071 56.1598 24.2216 56.3249L24.4685 59.1474C24.5102 59.6243 24.1575 60.0446 23.6807 60.0863V60.0863C23.4973 60.1024 23.3356 59.9667 23.3196 59.7833L23.0261 56.4295Z" fill="white"/>
<path d="M13.0192 33.6411C13.007 33.5518 13.0357 33.4618 13.0972 33.3959L13.9508 32.4818C14.1246 32.2956 14.4368 32.3971 14.4678 32.65L19.9541 77.3325C19.9761 77.5114 19.8366 77.6691 19.6564 77.6691L19.4367 77.6691C19.1865 77.6691 18.9749 77.4843 18.9412 77.2364L13.0192 33.6411Z" fill="white"/>
<path d="M75.223 7.3334C75.2201 7.16774 75.3521 7.0311 75.5177 7.02821L75.7177 7.02472C76.2699 7.01508 76.7254 7.45492 76.735 8.00712L77.1486 31.7035C77.1515 31.8692 77.0196 32.0058 76.8539 32.0087L76.154 32.0209C75.8779 32.0257 75.6502 31.8058 75.6454 31.5297L75.223 7.3334Z" fill="white"/>
<path d="M92.2229 28.3334C92.2201 28.1677 92.352 28.0311 92.5177 28.0282L93.2176 28.016C93.3832 28.0131 93.5199 28.1451 93.5228 28.3107L93.9486 52.707C93.9515 52.8727 93.8195 53.0093 93.6539 53.0122L93.1539 53.0209C92.8778 53.0257 92.6501 52.8058 92.6453 52.5297L92.2229 28.3334Z" fill="white"/>
<path d="M120 57.3C120 57.1343 120.134 57 120.3 57V57C120.852 57 121.3 57.4477 121.3 58V80.8523C121.3 80.9454 121.257 81.0333 121.183 81.0901L120.805 81.3809C120.476 81.6338 120 81.3994 120 80.9846V57.3Z" fill="white"/>
<path d="M100 87.3C100 87.1343 100.134 87 100.3 87H100.7C100.866 87 101 87.1343 101 87.3V107.984C101 108.071 100.963 108.153 100.898 108.21L100.83 108.269C100.507 108.554 100 108.324 100 107.894V87.3Z" fill="white"/>
<path d="M68.0105 21.3521C68.0047 21.1865 68.1342 21.0476 68.2998 21.0418L69.1993 21.0104C69.3649 21.0046 69.5038 21.1341 69.5096 21.2997L69.9772 34.6916C69.983 34.8571 69.8534 34.9961 69.6879 35.0018L68.9883 35.0263C68.7123 35.0359 68.4808 34.82 68.4711 34.544L68.0105 21.3521Z" fill="white"/>
<path d="M100.244 47.3217C100.244 47.156 100.378 47.0217 100.544 47.0217H101.244C101.41 47.0217 101.544 47.156 101.544 47.3217V61.7217C101.544 61.8874 101.41 62.0217 101.244 62.0217H100.744C100.468 62.0217 100.244 61.7979 100.244 61.5217V47.3217Z" fill="white"/>
<path d="M114 79.3C114 79.1343 114.134 79 114.3 79H115.2C115.366 79 115.5 79.1343 115.5 79.3V92.8394C115.5 92.9398 115.45 93.0334 115.366 93.0891L114.777 93.4818C114.445 93.7033 114 93.4651 114 93.0657V79.3Z" fill="white"/>
<path d="M114 50.3C114 50.1343 114.134 50 114.3 50H114.5C115.052 50 115.5 50.4477 115.5 51V64.7C115.5 64.8657 115.366 65 115.2 65H114.5C114.224 65 114 64.7761 114 64.5V50.3Z" fill="white"/>
<path d="M84.174 15.3229C84.174 15.1573 84.3083 15.0229 84.474 15.0229H85.374C85.5397 15.0229 85.674 15.1573 85.674 15.3229V24.7229C85.674 24.8886 85.5397 25.0229 85.374 25.0229H84.674C84.3979 25.0229 84.174 24.7991 84.174 24.5229V15.3229Z" fill="white"/>
<path d="M100 20.3C100 20.1343 100.134 20 100.3 20V20C100.852 20 101.3 20.4477 101.3 21V29.7C101.3 29.8657 101.166 30 101 30H100.5C100.224 30 100 29.7761 100 29.5V20.3Z" fill="white"/>
<path d="M84.174 31.3229C84.174 31.1573 84.3083 31.0229 84.474 31.0229H85.374C85.5397 31.0229 85.674 31.1573 85.674 31.3229V40.7229C85.674 40.8886 85.5397 41.0229 85.374 41.0229H84.674C84.3979 41.0229 84.174 40.7991 84.174 40.5229V31.3229Z" fill="white"/>
<path d="M50.7696 14.3908C50.758 14.2255 50.8826 14.0822 51.0479 14.0706L51.9457 14.0078C52.111 13.9963 52.2544 14.1209 52.2659 14.2862L53.2704 28.6511C53.282 28.8164 53.1574 28.9597 52.9921 28.9713L52.2938 29.0201C52.0183 29.0394 51.7794 28.8317 51.7601 28.5562L50.7696 14.3908Z" fill="white"/>
<path d="M44.8538 22.4156C44.8394 22.2505 44.9615 22.105 45.1266 22.0906L46.0231 22.0121C46.1882 21.9977 46.3337 22.1198 46.3481 22.2848L47.1674 31.6491C47.1818 31.8141 47.0597 31.9596 46.8947 31.9741L46.1974 32.0351C45.9223 32.0591 45.6797 31.8556 45.6557 31.5805L44.8538 22.4156Z" fill="white"/>
<path d="M18.0156 27.6304C18.0056 27.5473 18.0309 27.4638 18.0852 27.4001L18.8404 26.5148C19.0099 26.3162 19.3346 26.4138 19.3664 26.6729L20.9529 39.5935C20.9731 39.758 20.8561 39.9077 20.6917 39.9279L19.9986 40.013C19.7238 40.0467 19.474 39.8508 19.4412 39.5759L18.0156 27.6304Z" fill="white"/>
</svg>

<svg width="128" height="128" viewBox="0 0 128 128" fill="none" xmlns="http://www.w3.org/2000/svg"><circle cx="64" cy="64" r="64" fill="#000"/><path d="m32.5 57-2 2-1.5 2-1.5 2.5L27 65v3.5l.5 1 .5 1 .5 1 1 1.5 1.5 1.5 2.5 1.5 3 1.5 4 1 4 .5H51l2-.5 4.5-1 4-1.5 2-.5L65 75l1.5-.5h1l1 .5.5 1v1.5l-.5.5-7 3 1 8.5.25 2.25L63 95v27.5h10l4-.5 4.5-1 4.5-1.5 4-1.5 4-2v-.5l-1-21-.5-4.5-.5-4-.5-5-.5-4.5-1-4-1-3.5-1.5-5-2-3.5-2-3L81 55l-2-2-3-2.5-2.5-1.5-4-1.5-3-1-3-.5H56l-4.5 1-5 1.5-5 2-5 3-2 1.5-2 2z" fill="#fff" stroke="#000"/><circle cx="38" cy="56" r="2" fill="#000"/><circle cx="48.25" cy="57.25" r="2.25" fill="#000"/><path d="M59.118 6.372a.3.3 0 0 1 .284-.316l.9-.047a.3.3 0 0 1 .314.284l1.905 36.35a.3.3 0 0 1-.284.316l-.699.036a.5.5 0 0 1-.525-.473l-1.895-36.15zm47.849 16.942a.3.3 0 0 1 .3-.3 1 1 0 0 1 1 1v43.7a.3.3 0 0 1-.3.3h-.5a.5.5 0 0 1-.5-.5v-44.2zm-70.642-10.14a1 1 0 0 1 .89-1.1l.199-.02a.3.3 0 0 1 .33.267l2.863 27.25a.3.3 0 0 1-.267.33l-.696.073a.5.5 0 0 1-.55-.445l-2.77-26.355zM26.02 34.166a.3.3 0 0 1 .111-.27l.702-.554a.3.3 0 0 1 .483.197l2.66 20.275a.3.3 0 0 1-.132.29l-.725.48a.5.5 0 0 1-.773-.36l-2.327-20.058zM8.03 40.237a.5.5 0 0 1 .136-.41l.29-.3a.3.3 0 0 1 .514.171l2.933 23.89a.3.3 0 0 1-.26.335l-.102.013a.5.5 0 0 1-.557-.434L8.03 40.237zm4.013 28.248a.3.3 0 0 1 .26-.34l.193-.023a.3.3 0 0 1 .335.261l2.992 24.368a.132.132 0 0 1-.132.148.22.22 0 0 1-.218-.19l-3.43-24.224zm7.994 15.995a.3.3 0 0 1 .26-.334l.2-.024a.3.3 0 0 1 .334.261l2.608 21.241a.3.3 0 0 1-.262.334.5.5 0 0 1-.557-.435l-2.583-21.042zM32.16 98.453a.3.3 0 0 1 .267-.33l.398-.041a.3.3 0 0 1 .33.267l1.505 14.321a.3.3 0 0 1-.267.33l-.2.021a.501.501 0 0 1-.549-.445L32.16 98.453zM50.155 84.43a.3.3 0 0 1 .273-.325.5.5 0 0 1 .542.454l1.229 14.047a.4.4 0 0 1-.797.07L50.154 84.43zm-5.129 13a.3.3 0 0 1 .273-.326l.398-.034a.3.3 0 0 1 .325.272l.82 9.365a.3.3 0 0 1-.273.325l-.2.017a.5.5 0 0 1-.541-.455l-.802-9.164zm-5.949 13.008a.3.3 0 0 1 .273-.325l.398-.035a.3.3 0 0 1 .325.272l.47 5.38a.3.3 0 0 1-.272.325l-.2.017a.5.5 0 0 1-.54-.454l-.454-5.18zM36.026 81.43a.3.3 0 0 1 .273-.326l.598-.052a.3.3 0 0 1 .325.273l.47 5.38a.3.3 0 0 1-.273.324l-.398.035a.5.5 0 0 1-.542-.454l-.453-5.18zm-11.009-6.1a.2.2 0 0 1 .182-.217 1 1 0 0 1 1.084.91l.496 5.678a.3.3 0 0 1-.272.325l-.399.034a.5.5 0 0 1-.541-.454l-.55-6.276zm-1.991-18.9a.3.3 0 0 1 .273-.325l.598-.053a.3.3 0 0 1 .325.273l.246 2.822a.867.867 0 0 1-.787.94.333.333 0 0 1-.361-.304l-.294-3.354zM13.02 33.641a.3.3 0 0 1 .077-.245l.854-.914a.3.3 0 0 1 .517.168l5.486 44.682a.3.3 0 0 1-.298.337h-.22a.5.5 0 0 1-.495-.433L13.02 33.641zM75.223 7.333a.3.3 0 0 1 .295-.305l.2-.003a1 1 0 0 1 1.017.982l.414 23.697a.3.3 0 0 1-.295.305l-.7.012a.5.5 0 0 1-.509-.491l-.422-24.197zm17 21a.3.3 0 0 1 .295-.305l.7-.012a.3.3 0 0 1 .305.295l.426 24.396a.3.3 0 0 1-.295.305l-.5.009a.5.5 0 0 1-.509-.491l-.422-24.197zM120 57.3a.3.3 0 0 1 .3-.3 1 1 0 0 1 1 1v22.852a.3.3 0 0 1-.117.238l-.378.29a.5.5 0 0 1-.805-.395V57.3zm-20 30a.3.3 0 0 1 .3-.3h.4a.3.3 0 0 1 .3.3v20.684a.3.3 0 0 1-.102.226l-.068.059a.5.5 0 0 1-.83-.375V87.3zM68.01 21.352a.3.3 0 0 1 .29-.31l.9-.032a.3.3 0 0 1 .31.29l.467 13.392a.3.3 0 0 1-.29.31l-.699.024a.5.5 0 0 1-.517-.482l-.46-13.192zm32.234 25.97a.3.3 0 0 1 .3-.3h.7a.3.3 0 0 1 .3.3v14.4a.3.3 0 0 1-.3.3h-.5a.5.5 0 0 1-.5-.5v-14.2zM114 79.3a.3.3 0 0 1 .3-.3h.9a.3.3 0 0 1 .3.3v13.54a.3.3 0 0 1-.134.25l-.589.392a.5.5 0 0 1-.777-.416V79.3zm0-29a.3.3 0 0 1 .3-.3h.2a1 1 0 0 1 1 1v13.7a.3.3 0 0 1-.3.3h-.7a.5.5 0 0 1-.5-.5V50.3zM84.174 15.323a.3.3 0 0 1 .3-.3h.9a.3.3 0 0 1 .3.3v9.4a.3.3 0 0 1-.3.3h-.7a.5.5 0 0 1-.5-.5v-9.2zM100 20.3a.3.3 0 0 1 .3-.3 1 1 0 0 1 1 1v8.7a.3.3 0 0 1-.3.3h-.5a.5.5 0 0 1-.5-.5v-9.2zM84.174 31.323a.3.3 0 0 1 .3-.3h.9a.3.3 0 0 1 .3.3v9.4a.3.3 0 0 1-.3.3h-.7a.5.5 0 0 1-.5-.5v-9.2zM50.77 14.39a.3.3 0 0 1 .278-.32l.898-.062a.3.3 0 0 1 .32.278l1.004 14.365a.3.3 0 0 1-.278.32l-.698.05a.5.5 0 0 1-.534-.465l-.99-14.165zm-5.916 8.026a.3.3 0 0 1 .273-.325l.896-.079a.3.3 0 0 1 .325.273l.82 9.364a.3.3 0 0 1-.273.325l-.698.061a.5.5 0 0 1-.541-.454l-.802-9.165zM18.016 27.63a.3.3 0 0 1 .07-.23l.754-.885a.3.3 0 0 1 .526.158l1.587 12.92a.3.3 0 0 1-.261.335l-.693.085a.5.5 0 0 1-.558-.437L18.016 27.63z"/></svg>
